picto/arrow-pointing-left-and-up-green-framed.svg

<svg class="color-immutable" width="30" height="30" viewBox="0 0 30 30" fill="none" xmlns="http://www.w3.org/2000/svg"><path d="M30 0H0V30H30V0Z" fill="#237F52"/><path d="M6 6L6.19485 18.923L10.5998 23.3279L10.7936 14.3243L18.0233 21.5539L19.7886 19.7886L21.5537 18.0235L14.3241 10.7938L23.3277 10.6L18.9228 6.19507L6 6Z" fill="white"/></svg>

<svg class="color-immutable" width="30" height="30" viewBox="0 0 30 30" fill="none" xmlns="http://www.w3.org/2000/svg"><g clip-path="url(#a)"><path d="M30 0H0v30h30V0Z" fill="#237F52"/><path d="m6 6 .195 12.923 4.405 4.405.194-9.004 7.23 7.23 1.765-1.765 1.765-1.766-7.23-7.23 9.004-.193-4.405-4.405L6 6Z" fill="#fff"/></g><defs><clipPath id="a"><path fill="#fff" d="M0 0h30v30H0z"/></clipPath></defs></svg>
